img/c4.svg

<svg width="118" height="117" viewBox="0 0 118 117" fill="none" xmlns="http://www.w3.org/2000/svg">
<path d="M59 117C91.3087 117 117.5 90.8087 117.5 58.5C117.5 26.1913 91.3087 0 59 0C26.6913 0 0.5 26.1913 0.5 58.5C0.5 90.8087 26.6913 117 59 117Z" fill="url(#paint0_linear)" fill-opacity="0.4"/>
<path d="M59 48.4385C53.3837 48.4385 48.8141 53.0083 48.8141 58.6243C48.8141 64.2403 53.3837 68.8102 59 68.8102C64.6162 68.8102 69.1858 64.2406 69.1858 58.6243C69.1858 53.0081 64.6162 48.4385 59 48.4385ZM64.5147 58.0274L58.4031 64.1391C58.0052 64.5369 57.484 64.736 56.9628 64.736C56.4415 64.736 55.9203 64.5372 55.5224 64.1391L53.4852 62.1019C52.6895 61.3062 52.6895 60.0169 53.4852 59.2212C54.2809 58.4255 55.5702 58.4255 56.3659 59.2212L56.9628 59.8181L61.6338 55.147C62.4295 54.3513 63.7188 54.3513 64.5145 55.147C65.3102 55.9427 65.3104 57.2318 64.5147 58.0274ZM83.4463 35.0774C72.1702 35.0774 60.4842 24.6249 60.3667 24.5195C59.5909 23.8193 58.409 23.8193 57.6332 24.5195C57.5158 24.6249 45.8299 35.0774 34.5536 35.0774C33.4277 35.0774 32.5164 35.9885 32.5164 37.1146V61.3759C32.5164 80.576 46.2813 88.293 58.2738 92.8727C58.5066 92.9622 58.7532 93.0059 59 93.0059C59.2468 93.0059 59.4933 92.9622 59.7262 92.8727C71.7185 88.293 85.4836 80.576 85.4836 61.3759V37.1146C85.4833 35.9885 84.5722 35.0774 83.4463 35.0774ZM59 72.8846C51.1377 72.8846 44.7397 66.4866 44.7397 58.6243C44.7397 50.762 51.1377 44.364 59 44.364C66.8623 44.364 73.2603 50.762 73.2603 58.6243C73.2603 66.4866 66.8623 72.8846 59 72.8846Z" fill="url(#paint1_linear)"/>
<defs>
<linearGradient id="paint0_linear" x1="59" y1="0" x2="68.7828" y2="116.176" gradientUnits="userSpaceOnUse">
<stop stop-color="#FECA52"/>
<stop offset="0.515625" stop-color="#FFCE5F"/>
<stop offset="1" stop-color="#FF644E"/>
</linearGradient>
<linearGradient id="paint1_linear" x1="33" y1="24" x2="85" y2="93" gradientUnits="userSpaceOnUse">
<stop stop-color="#FFCB35"/>
<stop offset="0.302098" stop-color="#FFBF38"/>
<stop offset="0.698171" stop-color="#FF9F40"/>
<stop offset="0.9999" stop-color="#FF764A"/>
<stop offset="1" stop-color="#FF0066"/>
</linearGradient>
</defs>
</svg>

<svg width="118" height="117" viewBox="0 0 118 117" fill="none" xmlns="http://www.w3.org/2000/svg"><path d="M59 117c32.309 0 58.5-26.191 58.5-58.5S91.309 0 59 0 .5 26.191.5 58.5 26.691 117 59 117z" fill="url(#a)" fill-opacity=".4"/><path d="M59 48.438c-5.616 0-10.186 4.57-10.186 10.186S53.384 68.81 59 68.81s10.186-4.57 10.186-10.186S64.616 48.438 59 48.438zm5.515 9.59l-6.112 6.111c-.398.398-.919.597-1.44.597a2.03 2.03 0 0 1-1.44-.597l-2.038-2.037a2.037 2.037 0 1 1 2.88-2.88l.598.596 4.67-4.671a2.037 2.037 0 1 1 2.882 2.88zm18.931-22.95c-11.276 0-22.962-10.453-23.08-10.559-.775-.7-1.957-.7-2.733 0-.117.106-11.803 10.558-23.08 10.558a2.036 2.036 0 0 0-2.037 2.038v24.26c0 19.201 13.765 26.918 25.758 31.498.233.09.48.133.726.133.247 0 .493-.044.726-.133 11.993-4.58 25.758-12.297 25.758-31.497V37.115a2.036 2.036 0 0 0-2.038-2.038zM59 72.884c-7.862 0-14.26-6.398-14.26-14.26 0-7.863 6.398-14.261 14.26-14.261s14.26 6.398 14.26 14.26c0 7.863-6.398 14.26-14.26 14.26z" fill="url(#b)"/><defs><linearGradient id="a" x1="59" x2="68.783" y2="116.176" gradientUnits="userSpaceOnUse"><stop stop-color="#FECA52"/><stop offset=".516" stop-color="#FFCE5F"/><stop offset="1" stop-color="#FF644E"/></linearGradient><linearGradient id="b" x1="33" y1="24" x2="85" y2="93" gradientUnits="userSpaceOnUse"><stop stop-color="#FFCB35"/><stop offset=".302" stop-color="#FFBF38"/><stop offset=".698" stop-color="#FF9F40"/><stop offset="1" stop-color="#FF764A"/><stop offset="1" stop-color="#F06"/></linearGradient></defs></svg>
